X: 1
T: Dunkeld House
O: Neil Gow colln.
R: Jig
B: Gow Collection
Z: arr. Terry Traub 11-24-2002
M: 6/8
K: Edor
L: 1/8
B, |\
"Em"EFE G2E | "Em"B2E G2E | "D"F2D AFD | "D"dFD AFD | "Em"EFE G2E | "Em"B2E G2E |
 "G"B{c}dB "D"AFA | "Em"BGE E2 :| a | "Em"g{a}bg ege | "Em"g{a}bg ege | "D"f{g}af dfd | "D"f{g}af dfd |
 "Em"g{a}bg ege | "Em"g{a}bg ege | "Em"g{a}bg "D"f{g}af | "Em"gee e2 |] a | "Em"g{a}bg ege | "Em"g{a}bg ege |
 "D"f{g}af dfd | "D"f{g}af dfd | "Em"e{f}ge "D"f{g}af | "Em"g{a}bg e{f}ge | "D"d{e}fd F{G}AF | "Em"BGE E2 |]
